!!!SOCIAL_FUNCTION:	woman's dance songs
!!!PDT:	1909
!!!OTL: No_182.krn
!!!REG: Great_Lakes
!!!LANG: Non-Tone
!!!LING_GROUP: Algonquin
**kern	**kern
*staff2	*staff1
=1-	=1-
*clefF4	*clefF4
*k[]	*k[]
*M3/4	*M3/4
8r	4d\
8GG/	.
12GG^/	4d\
12r	.
12GG/	.
12GG^/	8.e\L
12r	.
12GG/	.
.	16d\Jk
=2||	=2||
*M2/4	*M2/4
2r	8.c\L
.	16c\Jk
.	[4c\
=3	=3
2r	2c\]
=4||	=4||
*M3/4	*M3/4
2.r	4c\
.	4A\
.	4c\
=5||	=5||
*M2/4	*M2/4
2r	8.d\L
.	16c\Jk
.	[4A\
=6	=6
2r	2A\]
=7||	=7||
*M3/4	*M3/4
2.r	4D\
.	4D\
.	8.E\L
.	16D\Jk
=8||	=8||
*M2/4	*M2/4
2r	8.C/L
.	16C/Jk
.	[4C/
=9	=9
2r	2C/]
=10||	=10||
*M3/4	*M3/4
2.r	4C/
.	4AA/
.	4C/
=11||	=11||
*M2/4	*M2/4
2r	8.D/L
.	16C/Jk
.	8.AA/L
.	16AA/Jk
=12	=12
2r	[2AA/
=13	=13
2r	2AA/]
==	==
*-	*-
